X: 7
T: Scotch Mary
T: Tom Keane's
M: 4/4
L: 1/8
R: reel
K: G Dorian
|: GA |\ 
BDDD (3BAG dc | BDDE F3 c |\ 
BDDD BGdc | BGAF G2 :|
(3ABc |\
dgge dedc | Bcde f3 e |\ 
dgge dedc | BGAF G2 (3ABc |
dgge dedc | Bcde f2 ef |\ 
ge (3fed ecdc | BGAF G2 |]
